X: 65
T: Lord Galloway's Lamentation
%R: air, minuet
B: "The Hibernian Muse" p.41 #2
F: http://imslp.org/wiki/The_Hibernian_Muse_%28Various%29
Z: 2015 John Chambers <jc:trillian.mit.edu>
P: No. LXV.
M: 3/4
L: 1/16
K: F	% Ambiguous: could be Gdor or Cmix
% - - - - - - - - - - - - - - - - - - - - - - - - - - - - -
V: 1
[|\
d4 g4 (g2a2) | g8 (f2g2) |\
a6 g2 (agf2) | f3c f3g (agfe) |\
d4 g4 (gaba) | g8 (f2g2) |\
(a2g2)(f2d2)(c3A) | G8 |]\
A2c2 |\
(d3f)(d3c)(A3c) | d4 G4 G2!p!g2 |
(d3f) (dfdc) (AcAc) | d4 G4 !f!a2g2 |\
(f3g)(f2d2)(c2d2) | f4 F4 !p!(fga2) |\
(f3g) (fgfd) (cAcd) | (f2c2) (f2g2) (agf2) |\
!f!d4 g4 (gaba) | g8 f2g2 |\
(a3g) (agfd) (fdcA) | {A4}G8 |]
% - - - - - - - - - - - - - - - - - - - - - - - - - - - - -
V: 2 clef=bass middle=d
[|\
G4 B4 d4 | B4 G4 z4 | F4 A4 c4 | A4 F4 z4 |\
G4 B4 d4 | B4 G4 z4 | f4 F4 f4 |
c4 C4 |] z4 |\
f4 f4 f4 | B4 B4 !p!B4 | f4 f4 f4 | B4 B4 !f!z4 |\
b4 b4 b4 | a4 a4 !p!a4 |
b4 b4 b4 | a4 a4 a4 |\
!f!b4 B4 d4 | g4 G4 z4 | f4 F4 f4 | c4 C4 |]

%%sep 2 1 500
%%sep 1 1 500

